X: 38094
T: Split Rock
R: jig
M: 6/8
K: Eminor
GAB AGE|~B3 AGE|~D2A AGE|GAE (3GFE D|
~E2A AGE|GAE (3GFE D|~B3 AGD|1 ~E2A AGE:|2 ~E2A ABc||
|:~B3 deg|edB dBG|~A3 AGE|ABA ABc|
~B3 deg|edB dBG|~B3 AGD|1 ~E2A ABc:|2 ~E2A AGE||

